!!!OTL: WENN SICH DIE HAHNEN KRAEHEN
!!!ARE: Europa, Mitteleuropa, Deutschland, Westfalen
!!!SCT: E0822
!!!YEM: Copyright 1995, estate of Helmut Schaffrath.
**kern
*ICvox
*Ivox
*M2/4
*k[b-]
*d:
{8d
=1
8d
8e
8fn
8g
=2
8a
8g#
8a}
{8cc#
=3
8dd
8dd
8a
8g#
=4
4a
8r}
{8a
=5
8b-
8a
8g
8b-
=6
8a
8g
8fn}
{8a
=7
8g
8fn
8e
8fn
=8
4d
8r}
==
!!!AGN: Tage - Lied, Kilt - Lied
!!!ONB: ESAC (Essen Associative Code) Database: ERK2
!!!AMT: simple duple
!!!AIN: vox
!!!EED: Helmut Schaffrath
!!!EEV: 1.0
*-
